packages/ffe-icons/icons/open/300/md/keyboard_hide.svg

<svg xmlns="http://www.w3.org/2000/svg" height="24" viewBox="0 -960 960 960" width="24"><path d="m467.154-75.925-97.768-97.768q-8.846-8.846-4.423-19.884 4.423-11.039 16.884-11.039h196.306q12.461 0 16.884 11.039 4.423 11.038-4.423 19.884l-97.768 97.768q-5.615 5.616-12.846 5.616t-12.846-5.616ZM172.309-300q-30.308 0-51.308-21t-21-51.308v-375.382q0-30.308 21-51.308t51.308-21h615.382q30.308 0 51.308 21t21 51.308v375.382q0 30.308-21 51.308t-51.308 21H172.309Zm0-59.999h615.382q4.616 0 8.463-3.846 3.846-3.847 3.846-8.463v-375.382q0-4.616-3.846-8.463-3.847-3.846-8.463-3.846H172.309q-4.616 0-8.463 3.846-3.846 3.847-3.846 8.463v375.382q0 4.616 3.846 8.463 3.847 3.846 8.463 3.846ZM360-404.616h240q14.692 0 25.038-10.153 10.346-10.154 10.346-25.231 0-14.692-10.346-25.038T600-475.384H360q-14.692 0-25.038 10.153-10.346 10.154-10.346 25.231 0 14.692 10.346 25.038T360-404.616ZM160-360V-760-360Zm80-284.616q14.692 0 25.038-10.346T275.384-680q0-14.692-10.346-25.038T240-715.384q-14.692 0-25.038 10.346T204.616-680q0 14.692 10.346 25.038T240-644.616Zm120 0q14.692 0 25.038-10.346T395.384-680q0-14.692-10.346-25.038T360-715.384q-14.692 0-25.038 10.346T324.616-680q0 14.692 10.346 25.038T360-644.616Zm120 0q14.692 0 25.038-10.346T515.384-680q0-14.692-10.346-25.038T480-715.384q-14.692 0-25.038 10.346T444.616-680q0 14.692 10.346 25.038T480-644.616Zm120 0q14.692 0 25.038-10.346T635.384-680q0-14.692-10.346-25.038T600-715.384q-14.692 0-25.038 10.346T564.616-680q0 14.692 10.346 25.038T600-644.616Zm120 0q14.692 0 25.038-10.346T755.384-680q0-14.692-10.346-25.038T720-715.384q-14.692 0-25.038 10.346T684.616-680q0 14.692 10.346 25.038T720-644.616Zm-480 120q14.692 0 25.038-10.346T275.384-560q0-14.692-10.346-25.038T240-595.384q-14.692 0-25.038 10.346T204.616-560q0 14.692 10.346 25.038T240-524.616Zm120 0q14.692 0 25.038-10.346T395.384-560q0-14.692-10.346-25.038T360-595.384q-14.692 0-25.038 10.346T324.616-560q0 14.692 10.346 25.038T360-524.616Zm120 0q14.692 0 25.038-10.346T515.384-560q0-14.692-10.346-25.038T480-595.384q-14.692 0-25.038 10.346T444.616-560q0 14.692 10.346 25.038T480-524.616Zm120 0q14.692 0 25.038-10.346T635.384-560q0-14.692-10.346-25.038T600-595.384q-14.692 0-25.038 10.346T564.616-560q0 14.692 10.346 25.038T600-524.616Zm120 0q14.692 0 25.038-10.346T755.384-560q0-14.692-10.346-25.038T720-595.384q-14.692 0-25.038 10.346T684.616-560q0 14.692 10.346 25.038T720-524.616Z"/></svg>

<svg xmlns="http://www.w3.org/2000/svg" height="24" viewBox="0 -960 960 960" width="24"><path d="m467.15-75.92-97.76-97.77q-8.85-8.85-4.43-19.89 4.43-11.04 16.89-11.04h196.3q12.46 0 16.89 11.04 4.42 11.04-4.43 19.89l-97.76 97.77q-5.62 5.61-12.85 5.61-7.23 0-12.85-5.61ZM172.31-300Q142-300 121-321q-21-21-21-51.31v-375.38Q100-778 121-799q21-21 51.31-21h615.38Q818-820 839-799q21 21 21 51.31v375.38Q860-342 839-321q-21 21-51.31 21H172.31Zm0-60h615.38q4.62 0 8.46-3.85 3.85-3.84 3.85-8.46v-375.38q0-4.62-3.85-8.46-3.84-3.85-8.46-3.85H172.31q-4.62 0-8.46 3.85-3.85 3.84-3.85 8.46v375.38q0 4.62 3.85 8.46 3.84 3.85 8.46 3.85ZM360-404.62h240q14.69 0 25.04-10.15 10.34-10.15 10.34-25.23 0-14.69-10.34-25.04-10.35-10.34-25.04-10.34H360q-14.69 0-25.04 10.15-10.34 10.15-10.34 25.23 0 14.69 10.34 25.04 10.35 10.34 25.04 10.34ZM160-360v-400 400Zm80-284.62q14.69 0 25.04-10.34 10.34-10.35 10.34-25.04t-10.34-25.04q-10.35-10.34-25.04-10.34t-25.04 10.34q-10.34 10.35-10.34 25.04t10.34 25.04q10.35 10.34 25.04 10.34Zm120 0q14.69 0 25.04-10.34 10.34-10.35 10.34-25.04t-10.34-25.04q-10.35-10.34-25.04-10.34t-25.04 10.34q-10.34 10.35-10.34 25.04t10.34 25.04q10.35 10.34 25.04 10.34Zm120 0q14.69 0 25.04-10.34 10.34-10.35 10.34-25.04t-10.34-25.04q-10.35-10.34-25.04-10.34t-25.04 10.34q-10.34 10.35-10.34 25.04t10.34 25.04q10.35 10.34 25.04 10.34Zm120 0q14.69 0 25.04-10.34 10.34-10.35 10.34-25.04t-10.34-25.04q-10.35-10.34-25.04-10.34t-25.04 10.34q-10.34 10.35-10.34 25.04t10.34 25.04q10.35 10.34 25.04 10.34Zm120 0q14.69 0 25.04-10.34 10.34-10.35 10.34-25.04t-10.34-25.04q-10.35-10.34-25.04-10.34t-25.04 10.34q-10.34 10.35-10.34 25.04t10.34 25.04q10.35 10.34 25.04 10.34Zm-480 120q14.69 0 25.04-10.34 10.34-10.35 10.34-25.04t-10.34-25.04q-10.35-10.34-25.04-10.34t-25.04 10.34q-10.34 10.35-10.34 25.04t10.34 25.04q10.35 10.34 25.04 10.34Zm120 0q14.69 0 25.04-10.34 10.34-10.35 10.34-25.04t-10.34-25.04q-10.35-10.34-25.04-10.34t-25.04 10.34q-10.34 10.35-10.34 25.04t10.34 25.04q10.35 10.34 25.04 10.34Zm120 0q14.69 0 25.04-10.34 10.34-10.35 10.34-25.04t-10.34-25.04q-10.35-10.34-25.04-10.34t-25.04 10.34q-10.34 10.35-10.34 25.04t10.34 25.04q10.35 10.34 25.04 10.34Zm120 0q14.69 0 25.04-10.34 10.34-10.35 10.34-25.04t-10.34-25.04q-10.35-10.34-25.04-10.34t-25.04 10.34q-10.34 10.35-10.34 25.04t10.34 25.04q10.35 10.34 25.04 10.34Zm120 0q14.69 0 25.04-10.34 10.34-10.35 10.34-25.04t-10.34-25.04q-10.35-10.34-25.04-10.34t-25.04 10.34q-10.34 10.35-10.34 25.04t10.34 25.04q10.35 10.34 25.04 10.34Z"/></svg>
